app/assets/images/icons/active/restaurant.svg

<?xml version="1.0" encoding="UTF-8" standalone="no"?>
<svg width="32px" height="232px" viewBox="0 0 32 232" version="1.1" xmlns="http://www.w3.org/2000/svg" xmlns:xlink="http://www.w3.org/1999/xlink" xmlns:sketch="http://www.bohemiancoding.com/sketch/ns">
    <title>restaurant</title>
    <description>Created with Sketch (http://www.bohemiancoding.com/sketch)</description>
    <defs></defs>
    <g id="Points-of-interest" stroke="none" stroke-width="1" fill="none" fill-rule="evenodd" sketch:type="MSPage">
        <path d="M11.3049529,179.247 C11.2559529,179.289 6.45195294,183.779 4.70995294,185.515 C4.03095294,186.192 3.82195294,187.074 4.15695294,187.873 C4.45095294,188.589 5.10695294,189.049 5.82495294,189.049 C6.34195294,189.049 6.84095294,188.81 7.27995294,188.375 L14.1259529,181.766 L11.4609529,179.1 L11.3049529,179.247 L11.3049529,179.247 L11.3049529,179.247 L11.3049529,179.247 Z M27.8309529,185.53 L21.7039529,179.403 L8.07695294,165.569 L7.95095294,165.61 C7.87795294,165.634 6.15895294,166.179 5.66295294,167.764 C5.27795294,168.994 5.74695294,170.471 7.07695294,172.174 L15.7809529,181.086 L15.8389529,181.144 L18.3659529,181.347 L19.0359529,182.068 C19.0759529,182.114 23.2389529,186.367 24.9779529,188.104 C25.5609529,188.689 26.1639529,188.81 26.5659529,188.81 C27.3599529,188.81 28.0889529,188.34 28.3769529,187.635 C28.6679529,186.938 28.4689529,186.17 27.8309529,185.53 L27.8309529,185.53 Z M17.3919529,172.59 L20.4879529,175.689 C20.9579529,176.158 21.5469529,176.425 22.1079529,176.425 C22.4349529,176.425 22.7299529,176.33 22.9609529,176.155 L22.9689529,176.166 L27.8369529,171.296 C28.0339529,171.097 28.1449529,170.835 28.1449529,170.554 C28.1449529,170.276 28.0339529,170.011 27.8369529,169.812 C27.4419529,169.417 26.7499529,169.417 26.3499529,169.812 L22.1479529,174.021 L21.3719529,173.246 L25.3799529,169.237 C25.7899529,168.829 25.7899529,168.159 25.3799529,167.754 C24.9819529,167.355 24.2939529,167.355 23.8969529,167.754 L19.8869529,171.761 L19.0669529,170.935 L23.2199529,166.781 C23.6299529,166.37 23.6299529,165.706 23.2199529,165.297 C22.8249529,164.901 22.1329529,164.901 21.7379529,165.297 L17.0329529,169.996 C16.7329529,170.299 16.6029529,170.744 16.6729529,171.243 C16.7489529,171.724 17.0029529,172.203 17.3919529,172.59 L17.3919529,172.59 Z M17.3919529,172.59" id="restaurant--green" fill="#47A899" sketch:type="MSShapeGroup"></path>
        <path d="M11.3049529,139.247 C11.2559529,139.289 6.45195294,143.779 4.70995294,145.515 C4.03095294,146.192 3.82195294,147.074 4.15695294,147.873 C4.45095294,148.589 5.10695294,149.049 5.82495294,149.049 C6.34195294,149.049 6.84095294,148.81 7.27995294,148.375 L14.1259529,141.766 L11.4609529,139.1 L11.3049529,139.247 L11.3049529,139.247 L11.3049529,139.247 L11.3049529,139.247 Z M27.8309529,145.53 L21.7039529,139.403 L8.07695294,125.569 L7.95095294,125.61 C7.87795294,125.634 6.15895294,126.179 5.66295294,127.764 C5.27795294,128.994 5.74695294,130.471 7.07695294,132.174 L15.7809529,141.086 L15.8389529,141.144 L18.3659529,141.347 L19.0359529,142.068 C19.0759529,142.114 23.2389529,146.367 24.9779529,148.104 C25.5609529,148.689 26.1639529,148.81 26.5659529,148.81 C27.3599529,148.81 28.0889529,148.34 28.3769529,147.635 C28.6679529,146.938 28.4689529,146.17 27.8309529,145.53 L27.8309529,145.53 Z M17.3919529,132.59 L20.4879529,135.689 C20.9579529,136.158 21.5469529,136.425 22.1079529,136.425 C22.4349529,136.425 22.7299529,136.33 22.9609529,136.155 L22.9689529,136.166 L27.8369529,131.296 C28.0339529,131.097 28.1449529,130.835 28.1449529,130.554 C28.1449529,130.276 28.0339529,130.011 27.8369529,129.812 C27.4419529,129.417 26.7499529,129.417 26.3499529,129.812 L22.1479529,134.021 L21.3719529,133.246 L25.3799529,129.237 C25.7899529,128.829 25.7899529,128.159 25.3799529,127.754 C24.9819529,127.355 24.2939529,127.355 23.8969529,127.754 L19.8869529,131.761 L19.0669529,130.935 L23.2199529,126.781 C23.6299529,126.37 23.6299529,125.706 23.2199529,125.297 C22.8249529,124.901 22.1329529,124.901 21.7379529,125.297 L17.0329529,129.996 C16.7329529,130.299 16.6029529,130.744 16.6729529,131.243 C16.7489529,131.724 17.0029529,132.203 17.3919529,132.59 L17.3919529,132.59 Z M17.3919529,132.59" id="restaurant--lp-blue" fill="#206FAC" sketch:type="MSShapeGroup"></path>
        <path d="M11.3049529,99.247 C11.2559529,99.289 6.45195294,103.779 4.70995294,105.515 C4.03095294,106.192 3.82195294,107.074 4.15695294,107.873 C4.45095294,108.589 5.10695294,109.049 5.82495294,109.049 C6.34195294,109.049 6.84095294,108.81 7.27995294,108.375 L14.1259529,101.766 L11.4609529,99.1 L11.3049529,99.247 L11.3049529,99.247 L11.3049529,99.247 L11.3049529,99.247 Z M27.8309529,105.53 L21.7039529,99.403 L8.07695294,85.569 L7.95095294,85.61 C7.87795294,85.634 6.15895294,86.179 5.66295294,87.764 C5.27795294,88.994 5.74695294,90.471 7.07695294,92.174 L15.7809529,101.086 L15.8389529,101.144 L18.3659529,101.347 L19.0359529,102.068 C19.0759529,102.114 23.2389529,106.367 24.9779529,108.104 C25.5609529,108.689 26.1639529,108.81 26.5659529,108.81 C27.3599529,108.81 28.0889529,108.34 28.3769529,107.635 C28.6679529,106.938 28.4689529,106.17 27.8309529,105.53 L27.8309529,105.53 Z M17.3919529,92.59 L20.4879529,95.689 C20.9579529,96.158 21.5469529,96.425 22.1079529,96.425 C22.4349529,96.425 22.7299529,96.33 22.9609529,96.155 L22.9689529,96.166 L27.8369529,91.296 C28.0339529,91.097 28.1449529,90.835 28.1449529,90.554 C28.1449529,90.276 28.0339529,90.011 27.8369529,89.812 C27.4419529,89.417 26.7499529,89.417 26.3499529,89.812 L22.1479529,94.021 L21.3719529,93.246 L25.3799529,89.237 C25.7899529,88.829 25.7899529,88.159 25.3799529,87.754 C24.9819529,87.355 24.2939529,87.355 23.8969529,87.754 L19.8869529,91.761 L19.0669529,90.935 L23.2199529,86.781 C23.6299529,86.37 23.6299529,85.706 23.2199529,85.297 C22.8249529,84.901 22.1329529,84.901 21.7379529,85.297 L17.0329529,89.996 C16.7329529,90.299 16.6029529,90.744 16.6729529,91.243 C16.7489529,91.724 17.0029529,92.203 17.3919529,92.59 L17.3919529,92.59 Z M17.3919529,92.59" id="restaurant--white" fill="#FFFFFF" sketch:type="MSShapeGroup"></path>
        <path d="M11.3049529,59.247 C11.2559529,59.289 6.45195294,63.779 4.70995294,65.515 C4.03095294,66.192 3.82195294,67.074 4.15695294,67.873 C4.45095294,68.589 5.10695294,69.049 5.82495294,69.049 C6.34195294,69.049 6.84095294,68.81 7.27995294,68.375 L14.1259529,61.766 L11.4609529,59.1 L11.3049529,59.247 L11.3049529,59.247 L11.3049529,59.247 L11.3049529,59.247 Z M27.8309529,65.53 L21.7039529,59.403 L8.07695294,45.569 L7.95095294,45.61 C7.87795294,45.634 6.15895294,46.179 5.66295294,47.764 C5.27795294,48.994 5.74695294,50.471 7.07695294,52.174 L15.7809529,61.086 L15.8389529,61.144 L18.3659529,61.347 L19.0359529,62.068 C19.0759529,62.114 23.2389529,66.367 24.9779529,68.104 C25.5609529,68.689 26.1639529,68.81 26.5659529,68.81 C27.3599529,68.81 28.0889529,68.34 28.3769529,67.635 C28.6679529,66.938 28.4689529,66.17 27.8309529,65.53 L27.8309529,65.53 Z M17.3919529,52.59 L20.4879529,55.689 C20.9579529,56.158 21.5469529,56.425 22.1079529,56.425 C22.4349529,56.425 22.7299529,56.33 22.9609529,56.155 L22.9689529,56.166 L27.8369529,51.296 C28.0339529,51.097 28.1449529,50.835 28.1449529,50.554 C28.1449529,50.276 28.0339529,50.011 27.8369529,49.812 C27.4419529,49.417 26.7499529,49.417 26.3499529,49.812 L22.1479529,54.021 L21.3719529,53.246 L25.3799529,49.237 C25.7899529,48.829 25.7899529,48.159 25.3799529,47.754 C24.9819529,47.355 24.2939529,47.355 23.8969529,47.754 L19.8869529,51.761 L19.0669529,50.935 L23.2199529,46.781 C23.6299529,46.37 23.6299529,45.706 23.2199529,45.297 C22.8249529,44.901 22.1329529,44.901 21.7379529,45.297 L17.0329529,49.996 C16.7329529,50.299 16.6029529,50.744 16.6729529,51.243 C16.7489529,51.724 17.0029529,52.203 17.3919529,52.59 L17.3919529,52.59 Z M17.3919529,52.59" id="restaurant--body-grey" fill="#67747C" sketch:type="MSShapeGroup"></path>
        <path d="M11.3049529,19.247 C11.2559529,19.289 6.45195294,23.779 4.70995294,25.515 C4.03095294,26.192 3.82195294,27.074 4.15695294,27.873 C4.45095294,28.589 5.10695294,29.049 5.82495294,29.049 C6.34195294,29.049 6.84095294,28.81 7.27995294,28.375 L14.1259529,21.766 L11.4609529,19.1 L11.3049529,19.247 L11.3049529,19.247 L11.3049529,19.247 L11.3049529,19.247 Z M27.8309529,25.53 L21.7039529,19.403 L8.07695294,5.569 L7.95095294,5.61 C7.87795294,5.634 6.15895294,6.179 5.66295294,7.764 C5.27795294,8.994 5.74695294,10.471 7.07695294,12.174 L15.7809529,21.086 L15.8389529,21.144 L18.3659529,21.347 L19.0359529,22.068 C19.0759529,22.114 23.2389529,26.367 24.9779529,28.104 C25.5609529,28.689 26.1639529,28.81 26.5659529,28.81 C27.3599529,28.81 28.0889529,28.34 28.3769529,27.635 C28.6679529,26.938 28.4689529,26.17 27.8309529,25.53 L27.8309529,25.53 Z M17.3919529,12.59 L20.4879529,15.689 C20.9579529,16.158 21.5469529,16.425 22.1079529,16.425 C22.4349529,16.425 22.7299529,16.33 22.9609529,16.155 L22.9689529,16.166 L27.8369529,11.296 C28.0339529,11.097 28.1449529,10.835 28.1449529,10.554 C28.1449529,10.276 28.0339529,10.011 27.8369529,9.812 C27.4419529,9.417 26.7499529,9.417 26.3499529,9.812 L22.1479529,14.021 L21.3719529,13.246 L25.3799529,9.237 C25.7899529,8.829 25.7899529,8.159 25.3799529,7.754 C24.9819529,7.355 24.2939529,7.355 23.8969529,7.754 L19.8869529,11.761 L19.0669529,10.935 L23.2199529,6.781 C23.6299529,6.37 23.6299529,5.706 23.2199529,5.297 C22.8249529,4.901 22.1329529,4.901 21.7379529,5.297 L17.0329529,9.996 C16.7329529,10.299 16.6029529,10.744 16.6729529,11.243 C16.7489529,11.724 17.0029529,12.203 17.3919529,12.59 L17.3919529,12.59 Z M17.3919529,12.59" id="restaurant--title-grey" fill="#3B444F" sketch:type="MSShapeGroup"></path>
    </g>
</svg>

<svg width="32" height="232" viewBox="0 0 32 232" xmlns="http://www.w3.org/2000/svg" xmlns:sketch="http://www.bohemiancoding.com/sketch/ns"><title>restaurant</title><g sketch:type="MSPage" fill="none"><path d="M11.305 179.247c-.049.042-4.853 4.532-6.595 6.268-.679.677-.888 1.559-.553 2.358.294.716.95 1.176 1.668 1.176.517 0 1.016-.239 1.455-.674l6.846-6.609-2.665-2.666-.156.147zm16.526 6.283l-6.127-6.127-13.627-13.834-.126.041c-.073.024-1.792.569-2.288 2.154-.385 1.23.084 2.707 1.414 4.41l8.704 8.912.058.058 2.527.203.67.721c.04.046 4.203 4.299 5.942 6.036.583.585 1.186.706 1.588.706.794 0 1.523-.47 1.811-1.175.291-.697.092-1.465-.546-2.105zm-10.439-12.94l3.096 3.099c.47.469 1.059.736 1.62.736.327 0 .622-.095.853-.27l.008.011 4.868-4.87c.197-.199.308-.461.308-.742 0-.278-.111-.543-.308-.742-.395-.395-1.087-.395-1.487 0l-4.202 4.209-.776-.775 4.008-4.009c.41-.408.41-1.078 0-1.483-.398-.399-1.086-.399-1.483 0l-4.01 4.007-.82-.826 4.153-4.154c.41-.411.41-1.075 0-1.484-.395-.396-1.087-.396-1.482 0l-4.705 4.699c-.3.303-.43.748-.36 1.247.076.481.33.96.719 1.347zm0 0" fill="#47A899" sketch:type="MSShapeGroup"/><path d="M11.305 139.247c-.049.042-4.853 4.532-6.595 6.268-.679.677-.888 1.559-.553 2.358.294.716.95 1.176 1.668 1.176.517 0 1.016-.239 1.455-.674l6.846-6.609-2.665-2.666-.156.147zm16.526 6.283l-6.127-6.127-13.627-13.834-.126.041c-.073.024-1.792.569-2.288 2.154-.385 1.23.084 2.707 1.414 4.41l8.704 8.912.058.058 2.527.203.67.721c.04.046 4.203 4.299 5.942 6.036.583.585 1.186.706 1.588.706.794 0 1.523-.47 1.811-1.175.291-.697.092-1.465-.546-2.105zm-10.439-12.94l3.096 3.099c.47.469 1.059.736 1.62.736.327 0 .622-.095.853-.27l.008.011 4.868-4.87c.197-.199.308-.461.308-.742 0-.278-.111-.543-.308-.742-.395-.395-1.087-.395-1.487 0l-4.202 4.209-.776-.775 4.008-4.009c.41-.408.41-1.078 0-1.483-.398-.399-1.086-.399-1.483 0l-4.01 4.007-.82-.826 4.153-4.154c.41-.411.41-1.075 0-1.484-.395-.396-1.087-.396-1.482 0l-4.705 4.699c-.3.303-.43.748-.36 1.247.076.481.33.96.719 1.347zm0 0" fill="#206FAC" sketch:type="MSShapeGroup"/><path d="M11.305 99.247c-.049.042-4.853 4.532-6.595 6.268-.679.677-.888 1.559-.553 2.358.294.716.95 1.176 1.668 1.176.517 0 1.016-.239 1.455-.674l6.846-6.609-2.665-2.666-.156.147zm16.526 6.283l-6.127-6.127-13.627-13.834-.126.041c-.073.024-1.792.569-2.288 2.154-.385 1.23.084 2.707 1.414 4.41l8.704 8.912.058.058 2.527.203.67.721c.04.046 4.203 4.299 5.942 6.036.583.585 1.186.706 1.588.706.794 0 1.523-.47 1.811-1.175.291-.697.092-1.465-.546-2.105zm-10.439-12.94l3.096 3.099c.47.469 1.059.736 1.62.736.327 0 .622-.095.853-.27l.008.011 4.868-4.87c.197-.199.308-.461.308-.742 0-.278-.111-.543-.308-.742-.395-.395-1.087-.395-1.487 0l-4.202 4.209-.776-.775 4.008-4.009c.41-.408.41-1.078 0-1.483-.398-.399-1.086-.399-1.483 0l-4.01 4.007-.82-.826 4.153-4.154c.41-.411.41-1.075 0-1.484-.395-.396-1.087-.396-1.482 0l-4.705 4.699c-.3.303-.43.748-.36 1.247.076.481.33.96.719 1.347zm0 0" fill="#fff" sketch:type="MSShapeGroup"/><path d="M11.305 59.247c-.049.042-4.853 4.532-6.595 6.268-.679.677-.888 1.559-.553 2.358.294.716.95 1.176 1.668 1.176.517 0 1.016-.239 1.455-.674l6.846-6.609-2.665-2.666-.156.147zm16.526 6.283l-6.127-6.127-13.627-13.834-.126.041c-.073.024-1.792.569-2.288 2.154-.385 1.23.084 2.707 1.414 4.41l8.704 8.912.058.058 2.527.203.67.721c.04.046 4.203 4.299 5.942 6.036.583.585 1.186.706 1.588.706.794 0 1.523-.47 1.811-1.175.291-.697.092-1.465-.546-2.105zm-10.439-12.94l3.096 3.099c.47.469 1.059.736 1.62.736.327 0 .622-.095.853-.27l.008.011 4.868-4.87c.197-.199.308-.461.308-.742 0-.278-.111-.543-.308-.742-.395-.395-1.087-.395-1.487 0l-4.202 4.209-.776-.775 4.008-4.009c.41-.408.41-1.078 0-1.483-.398-.399-1.086-.399-1.483 0l-4.01 4.007-.82-.826 4.153-4.154c.41-.411.41-1.075 0-1.484-.395-.396-1.087-.396-1.482 0l-4.705 4.699c-.3.303-.43.748-.36 1.247.076.481.33.96.719 1.347zm0 0" fill="#67747C" sketch:type="MSShapeGroup"/><path d="M11.305 19.247c-.049.042-4.853 4.532-6.595 6.268-.679.677-.888 1.559-.553 2.358.294.716.95 1.176 1.668 1.176.517 0 1.016-.239 1.455-.674l6.846-6.609-2.665-2.666-.156.147zm16.526 6.283l-6.127-6.127-13.627-13.834-.126.041c-.073.024-1.792.569-2.288 2.154-.385 1.23.084 2.707 1.414 4.41l8.704 8.912.058.058 2.527.203.67.721c.04.046 4.203 4.299 5.942 6.036.583.585 1.186.706 1.588.706.794 0 1.523-.47 1.811-1.175.291-.697.092-1.465-.546-2.105zm-10.439-12.94l3.096 3.099c.47.469 1.059.736 1.62.736.327 0 .622-.095.853-.27l.008.011 4.868-4.87c.197-.199.308-.461.308-.742 0-.278-.111-.543-.308-.742-.395-.395-1.087-.395-1.487 0l-4.202 4.209-.776-.775 4.008-4.009c.41-.408.41-1.078 0-1.483-.398-.399-1.086-.399-1.483 0l-4.01 4.007-.82-.826 4.153-4.154c.41-.411.41-1.075 0-1.484-.395-.396-1.087-.396-1.482 0l-4.705 4.699c-.3.303-.43.748-.36 1.247.076.481.33.96.719 1.347zm0 0" fill="#3B444F" sketch:type="MSShapeGroup"/></g></svg>
